X: 67
T:Pete Coe Tune No. 3
M:6/8
C:Pete Coe
R:Jig
N:http://www.lesession.co.uk
Z:Steve Mansfield 1998-2001
K:G
D | GFG BAB | c2 c c2 a | GFG BAB | A2 A A2 D | 
GFG BAB | c2 c cBc | dBG cAF | G3 G2 :: d | 
g2 g gfg | e2 e efg | a2 a a2 g | fdd def | 
g2 g gfg | e2 e e3 | ded cBA | G3 G2 :|

